X:115
T: Einst lebt ich so glcklich! (1-41), S. 106
N: K1089
O: Luxemburg
S: KINTZELE, Guillaume: An der Ucht, Bd. 1, Luxemburg 1926]
N: in der Quelle mit einer 2. Stimme versehen
R: Wehmut, Untreue]
M: 3/4
L: 1/8
K: D
DE | F2F2F2 | EFG2EF | G2A2B2 | A4
FG | A3FBA | AEE2
AB | c3BAG | FdA2
FG | A3FBA | AEE2
AB | c3BAG | F4

